Sources/FrostedUI/Resources/Icons.xcassets/clipboardSize12.imageset/clipboard-size-12.svg

<svg
  width="12"
  height="12"
  viewBox="0 0 12 12"
  fill="none"
  xmlns="http://www.w3.org/2000/svg"
  data-fui-icon="true"
>
  <path
    d="M8.29688 2.25H9C9.51777 2.25 9.9375 2.66973 9.9375 3.1875V10.3125C9.9375 10.8303 9.51777 11.25 9 11.25H3C2.48223 11.25 2.0625 10.8303 2.0625 10.3125V3.1875C2.0625 2.66973 2.48223 2.25 3 2.25H3.70312M4.75 5.75H7.25M4.75 8.75H7.25"
    stroke="currentColor"
    stroke-width="1.5"
    stroke-linecap="round"
    stroke-linejoin="round"
  />
  <path
    d="M4 2.5V1.5C4 1.08579 4.33611 0.75 4.75032 0.75H7.24968C7.66389 0.75 8 1.08579 8 1.5V2.5C8 2.91421 7.66421 3.25 7.25 3.25H4.75C4.33579 3.25 4 2.91421 4 2.5Z"
    stroke="currentColor"
    stroke-width="1.5"
    stroke-linecap="round"
    stroke-linejoin="round"
  />
</svg>

<svg xmlns="http://www.w3.org/2000/svg" width="12" height="12" fill="none" data-fui-icon="true" viewBox="0 0 12 12"><path stroke="currentColor" stroke-linecap="round" stroke-linejoin="round" stroke-width="1.5" d="M8.297 2.25H9c.518 0 .938.42.938.938v7.124c0 .518-.42.938-.938.938H3a.937.937 0 0 1-.937-.937V3.186c0-.517.42-.937.937-.937h.703m1.047 3.5h2.5m-2.5 3h2.5"/><path stroke="currentColor" stroke-linecap="round" stroke-linejoin="round" stroke-width="1.5" d="M4 2.5v-1a.75.75 0 0 1 .75-.75h2.5A.75.75 0 0 1 8 1.5v1a.75.75 0 0 1-.75.75h-2.5A.75.75 0 0 1 4 2.5"/></svg>
